X:1
T:Title
L:1/8
Q:1/4=120
M:4/4
K:Db
V:1 bass nm="Part_1"
V:1
|: !>!.=G2 z2 z4 |!p! z2 z2 :| z2 z2 |] z2 [c'e']8 z2 | z2 x6 | x8 | z2 z4 !>!D2 | %7
!>(! !>!!wedge!.g2 .D2 z2 z2!>)! z3/2 .A,/ | z .A, z .A, .A,2 .A,2 | .C2 z2 z2 z3/2 .=G,/ | %10
 z4 z2 z/!<)!!<(! !>!D3/2 | !>!!wedge!.D2 z2 z2 z3/2 .A,/ | z .A, z .A, .A,2 .A,2 | %13
 .C!>!A, z2 .A,A,/B,/ z/ C/ z | z8 | B,,6 z2 D,B,, | F,8 | C,8 | B,,3 D,3 E,2 | B,,6 D,B,, | C,8 | %21
 E,8 |!<(! E,3 G,- G,3!<)! A, | .!^!B,2 z2 z4 | .C,2 z2 z .C, E,<!>!F, | .A,2 z2 z4 | z4 z2 z A, | %27
 .B,2 z2 z4 | .C,2 z2 z4 | .A,2 z2 z4 | z8 | x8 | x8 | z2 z4 !>!.D2 .c'2 | x8 | [CE]8 | z4 z2 F,2 | %37
 !>!.!tenuto!B,2 z2 .B,B,/.C/- C/.D.F,/ | z .A, z .A, .A,2 .A,2 | .C2 z2 .A,A,/.B,/- B,/.CE,/ | %40
 z .=G, z .G, .B,>.B,- B,<!>!A, | .B,2 z2 .B,B,/.C/- C/.D.F,/ | z .A, z .A, .A,2 .A,2 | %43
 .C!>!A, z2 .A,A,/.B,/- B,/.CE,/ | z .=G, z .G, .B,>.B,- B,<!>!A, | .B,2 z2 .B,B,/.C/- C/.D.F,/ | %46
 z .A, z .A, .A,2 .A,2 | .C2 z2 .A,A,/.B,/- B,/.CE,/ | z .=G, z .G, .B,>.B,- B,<!>!A, | %49
 !wedge!.B,2 z2 .B,B,/.C/- C/.D.F,/ | z .A, z .A, .A,2 .A,2 | .C!>!A, z2 .A,A,/.B,/- B,/.CE,/ | %52
 z .=G, z .G, .B,>.B,- B,<!>!A, | B4 z4 |] %54

